assets/icons/SVG/icon-like.svg

<svg width="19" height="17" viewBox="0 0 19 17" fill="none" xmlns="http://www.w3.org/2000/svg">
<path d="M10.4712 4.005L9.9725 6.53375C9.8675 7.05 10.0075 7.58375 10.34 7.98625C10.6725 8.38875 11.1625 8.625 11.6875 8.625H16.5V9.57L14.2513 14.75H7.1725C7.015 14.75 6.875 14.61 6.875 14.4525V7.5925L10.4712 4.005V4.005ZM11.25 0.75L5.64125 6.35875C5.30875 6.69125 5.125 7.1375 5.125 7.60125V14.4525C5.125 15.5812 6.04375 16.5 7.1725 16.5H14.26C14.8813 16.5 15.45 16.1763 15.765 15.6513L18.1012 10.27C18.1975 10.0513 18.25 9.815 18.25 9.57V8.625C18.25 7.6625 17.4625 6.875 16.5 6.875H11.6875L12.4925 2.80625C12.5363 2.61375 12.51 2.40375 12.4225 2.22875C12.2213 1.835 11.9675 1.47625 11.6525 1.16125L11.25 0.75ZM2.5 6.875H0.75V16.5H2.5C2.98125 16.5 3.375 16.1063 3.375 15.625V7.75C3.375 7.26875 2.98125 6.875 2.5 6.875Z" fill="#323232"/>
</svg>

<?xml version="1.0" encoding="utf-8"?>
<!-- Generator: Adobe Illustrator 27.0.0, SVG Export Plug-In . SVG Version: 6.00 Build 0)  -->
<svg version="1.1" id="Layer_1" xmlns="http://www.w3.org/2000/svg" xmlns:xlink="http://www.w3.org/1999/xlink" x="0px" y="0px"
	 viewBox="0 0 19 17" style="enable-background:new 0 0 19 17;" xml:space="preserve">
<style type="text/css">
	.st0{fill:#AFAFAF;}
</style>
<path class="st0" d="M10.5,4L10,6.5c-0.1,0.5,0,1,0.4,1.5c0.3,0.4,0.8,0.6,1.3,0.6h4.8v0.9l-2.2,5.2H7.2c-0.2,0-0.3-0.1-0.3-0.3V7.6
	L10.5,4L10.5,4z M11.2,0.8L5.6,6.4C5.3,6.7,5.1,7.1,5.1,7.6v6.9c0,1.1,0.9,2,2,2h7.1c0.6,0,1.2-0.3,1.5-0.8l2.3-5.4
	c0.1-0.2,0.1-0.5,0.1-0.7V8.6c0-1-0.8-1.8-1.8-1.8h-4.8l0.8-4.1c0-0.2,0-0.4-0.1-0.6c-0.2-0.4-0.5-0.8-0.8-1.1L11.2,0.8z M2.5,6.9
	H0.8v9.6h1.8c0.5,0,0.9-0.4,0.9-0.9V7.8C3.4,7.3,3,6.9,2.5,6.9z"/>
</svg>
